X:1
T:Essen, CMD
T:Essen, CMD
T:German Melody
T:Public Domain Courtesy of the Cyber Hymnal™
C:German Melody
Z:Public Domain
Z:Courtesy of the Cyber Hymnal™
%%score ( 1 2 ) ( 3 4 )
L:1/8
Q:1/4=93
M:3/4
K:D
V:1 treble 
V:2 treble 
V:3 bass 
V:4 bass 
V:1
 [FA] | [FA]3 [DF] [GB][FA] | [FA]>[EG] [DF]2 z [DF] | [CE][DF] ([EG][GB]) ([FA][EG]) | %4
 [EG]2 [DF]2 z [FA] | [FA]3 [DF] [GB][FA] | [FA]>[EG] [DF]2 z [DF] | [CE][EA] (cB) (A^G) | %8
 [DB]2 [CA]2 z [CA] | [EG]3 [DF] [CE][A,D] | [A,C]>[A,D] [CE]2 z [GB] | [GB]3 [FA] [EG][DF] | %12
 [CE]4 z [FA] | [FA]3 [DF] [DG][DA] | [GB][Ac] (ed) (cB) | [FA]3 [DF] [CG]>[CE] | D4 z |] %17
V:2
 x | x6 | x6 | x6 | x6 | x6 | x6 | x2 E2 E2 | x6 | x6 | x6 | x6 | x6 | x6 | x2 B2 G2 | x6 | D4 x |] %17
V:3
 [D,A,] | [D,A,]3 [D,A,] [D,D][D,D] | [D,D]>[D,A,] [D,A,]2 z [D,A,] | %3
 [A,,A,][A,,A,] [A,,A,]2 [A,,A,]2 | [D,A,]4 z [D,A,] | [D,A,]3 [D,A,] [D,D][D,D] | %6
 [D,D]>[D,A,] [D,A,]2 z [D,A,] | [E,A,][E,C] (ED) (CB,) | [^G,B,]2 A,2 z [A,,A,] | %9
 [A,,C]3 [A,,A,] [A,,G,][A,,F,] | [A,,E,]>[A,,F,] [A,,G,]2 z [A,,A,] | %11
 [A,,A,]3 [A,,A,] [C,A,][D,A,] | [A,,A,]4 z [D,A,] | [D,A,]3 [=C,A,] [B,,G,][A,,F,] | %14
 [G,,G,][G,,G,] [G,,G,]2 [G,,E,]2 | [A,,F,]3 [A,,A,] [A,,A,]>[A,,G,] | [D,F,]4 z |] %17
V:4
 x | x6 | x6 | x6 | x6 | x6 | x6 | x2 E,2 E,2 | x2 A,2 x2 | x6 | x6 | x6 | x6 | x6 | x6 | x6 | %16
 x5 |] %17

